build/system/ArrowUpTwoOutline.svg

<svg xmlns="http://www.w3.org/2000/svg" fill="none" viewBox="0 0 24 24" focusable="false"><path d="M0 0H24V24H0z"/><path fill="#74767B" fill-rule="evenodd" d="M19.4657 1.7968C19.9488 1.27101 20.8028 1.36229 21.1639 1.97833C21.4001 2.38122 21.3453 2.89111 21.029 3.2347L17.6214 6.93638C17.4466 7.12621 17.4007 7.40143 17.5044 7.63772C17.608 7.874 17.8416 8.02661 18.0996 8.02661L22.3654 8.02661C22.7244 8.02661 23.0154 7.7356 23.0154 7.37661C23.0154 7.01763 22.7244 6.72661 22.3654 6.72661L19.5815 6.72661L21.9855 4.11517C22.6889 3.35101 22.8107 2.21697 22.2854 1.32092C21.4823 -0.0491807 19.583 -0.2522 18.5084 0.917189L18.1196 1.34027C17.8768 1.6046 17.8941 2.01579 18.1585 2.25869C18.4228 2.50159 18.834 2.48422 19.0769 2.21989L19.4657 1.7968ZM5.8208 11.9603C5.8208 12.1403 5.8908 12.3103 6.0308 12.4403C6.3008 12.6803 6.7108 12.6603 6.9508 12.4003L11.3508 7.56468L11.3508 18.4603C11.3508 18.8193 11.6418 19.1103 12.0008 19.1103C12.3598 19.1103 12.6508 18.8193 12.6508 18.4603L12.6508 7.56468L17.0508 12.4003C17.2908 12.6703 17.7008 12.6803 17.9708 12.4403C18.2308 12.2003 18.2508 11.7903 18.0108 11.5203L12.5208 5.48033C12.2408 5.17033 11.7608 5.17033 11.4808 5.48033L5.9908 11.5203C5.8708 11.6503 5.8208 11.8003 5.8208 11.9603Z"/></svg>

<svg xmlns="http://www.w3.org/2000/svg" fill="none" viewBox="0 0 24 24" focusable="false"><path fill="#74767B" fill-rule="evenodd" d="M19.46 1.79a1.07 1.07 0 0 1 1.7.18c.23.41.18.92-.14 1.26l-3.4 3.7a.648.648 0 0 0 .47 1.09h4.27c.36 0 .65-.29.65-.65s-.29-.65-.65-.65h-2.78l2.4-2.61c.7-.76.83-1.9.3-2.79-.8-1.37-2.7-1.58-3.78-.41l-.39.43c-.24.26-.22.67.04.91.27.25.68.23.92-.04zM5.82 11.96c0 .18.07.35.21.48.27.24.68.22.92-.04l4.4-4.84v10.9c0 .35.29.65.65.65.35 0 .65-.3.65-.65V7.56l4.4 4.84c.24.27.65.28.92.04.26-.24.28-.65.04-.92l-5.49-6.04a.7.7 0 0 0-1.04 0l-5.49 6.04c-.12.13-.17.28-.17.44"/></svg>
